src/assets/2017.svg

<svg width="2478" height="2213" fill="none" xmlns="http://www.w3.org/2000/svg">
  <g filter="url(#filter0_d)">
    <path d="M1677.53 884.557c-64.5-24.917 21.34-107.584-135.19-206.114C1312.01 533.462 363.161 0 363.161 0L25 733.352s819.486 606.058 927.802 663.808c106.998 57.05 280.158 10.03 315.838.34l1.26-.34c32.66-8.86 70.28-16.14 70.28 28.09 0 44.22-124.09 154.3-50.03 228 74.07 73.71 203.88 66.19 300.38 107.81 96.51 41.62 33.67 225.53 76.66 277.99 43 52.45 174.05 146.22 269.97 73.11 95.91-73.11 71.12-179.77 114.51-204.05s182.62 48.76 220.77-12.81c38.15-61.56-45.03-137.55 26.04-137.55s97.94-8.67 124.4-40.89c26.46-32.22 36.47-97.47 26.09-136.31-10.38-38.83-21.87-53.63-40.1-83.02-18.23-29.39-57.11-19.39-30.18-72.28 26.93-52.9 115.26-111.93 44.19-171.42-71.07-59.49-145.75 2.89-188.22-56.18-42.48-59.07 11.8-109.06-93.69-112.76-105.48-3.71-239.25 50.3-277.4 34.7-38.16-15.61-19.85-130.943-48.37-171.835-28.53-40.893-73.18-38.28-137.67-63.198z" fill="#fff"/>
  </g>
  <defs>
    <filter id="filter0_d" x="0" y="0" width="2478" height="2213" filterUnits="userSpaceOnUse" color-interpolation-filters="sRGB">
      <feFlood flood-opacity="0" result="BackgroundImageFix"/>
      <feColorMatrix in="SourceAlpha" values="0 0 0 0 0 0 0 0 0 0 0 0 0 0 0 0 0 0 127 0"/>
      <feOffset dy="49"/>
      <feGaussianBlur stdDeviation="12.5"/>
      <feColorMatrix values="0 0 0 0 0 0 0 0 0 0 0 0 0 0 0 0 0 0 0.25 0"/>
      <feBlend in2="BackgroundImageFix" result="effect1_dropShadow"/>
      <feBlend in="SourceGraphic" in2="effect1_dropShadow" result="shape"/>
    </filter>
  </defs>
</svg>

<svg width="2478" height="2213" viewBox="0 0 2478 2213" fill="none" xmlns="http://www.w3.org/2000/svg">
<g filter="url(#filter0_d)">
<path d="M1677.53 884.557C1613.03 859.64 1698.87 776.973 1542.34 678.443C1312.01 533.462 363.161 0 363.161 0L25 733.352C25 733.352 844.486 1339.41 952.802 1397.16C1059.8 1454.21 1232.96 1407.19 1268.64 1397.5L1269.9 1397.16C1302.56 1388.3 1340.18 1381.02 1340.18 1425.25C1340.18 1469.47 1216.09 1579.55 1290.15 1653.25C1364.22 1726.96 1494.03 1719.44 1590.53 1761.06C1687.04 1802.68 1624.2 1986.59 1667.19 2039.05C1710.19 2091.5 1841.24 2185.27 1937.16 2112.16C2033.07 2039.05 2008.28 1932.39 2051.67 1908.11C2095.06 1883.83 2234.29 1956.87 2272.44 1895.3C2310.59 1833.74 2227.41 1757.75 2298.48 1757.75C2369.55 1757.75 2396.42 1749.08 2422.88 1716.86C2449.34 1684.64 2459.35 1619.39 2448.97 1580.55C2438.59 1541.72 2427.1 1526.92 2408.87 1497.53C2390.64 1468.14 2351.76 1478.14 2378.69 1425.25C2405.62 1372.35 2493.95 1313.32 2422.88 1253.83C2351.81 1194.34 2277.13 1256.72 2234.66 1197.65C2192.18 1138.58 2246.46 1088.59 2140.97 1084.89C2035.49 1081.18 1901.72 1135.19 1863.57 1119.59C1825.41 1103.98 1843.72 988.647 1815.2 947.755C1786.67 906.862 1742.02 909.475 1677.53 884.557Z" fill="white"/>
</g>
<defs>
<filter id="filter0_d" x="0" y="0" width="2478" height="2213" filterUnits="userSpaceOnUse" color-interpolation-filters="sRGB">
<feFlood flood-opacity="0" result="BackgroundImageFix"/>
<feColorMatrix in="SourceAlpha" type="matrix" values="0 0 0 0 0 0 0 0 0 0 0 0 0 0 0 0 0 0 127 0"/>
<feOffset dy="49"/>
<feGaussianBlur stdDeviation="12.5"/>
<feColorMatrix type="matrix" values="0 0 0 0 0 0 0 0 0 0 0 0 0 0 0 0 0 0 0.25 0"/>
<feBlend mode="normal" in2="BackgroundImageFix" result="effect1_dropShadow"/>
<feBlend mode="normal" in="SourceGraphic" in2="effect1_dropShadow" result="shape"/>
</filter>
</defs>
</svg>
